app/img/_src/main/services/services-5.svg

<svg width="100" height="100" viewBox="0 0 100 100" fill="none" xmlns="http://www.w3.org/2000/svg">
<path d="M54.4291 80.1504C53.7846 72.5418 51.8219 66.6437 48.5971 62.6201C48.1614 62.0793 47.6093 61.6438 46.9819 61.3462C46.3544 61.0486 45.6679 60.8965 44.9734 60.9014C44.6019 60.9015 44.2316 60.9453 43.8703 61.0318C43.8754 61.0381 43.8808 61.0441 43.8861 61.0514C47.1109 65.0748 49.073 70.9732 49.718 78.5816C50.0127 81.9718 50.016 85.3809 49.7279 88.7717C49.7252 88.7976 49.7215 88.8236 49.7164 88.8498C49.666 89.0967 49.6833 89.3527 49.7666 89.5906C49.8498 89.8285 49.9958 90.0395 50.1892 90.2012C50.3825 90.3628 50.616 90.4692 50.8649 90.509C51.1138 90.5488 51.3688 90.5205 51.6029 90.4271C51.8134 90.3704 52.0118 90.2763 52.1889 90.1492C53.1613 89.1236 53.9843 87.966 54.6336 86.7105C54.6795 84.5217 54.6112 82.3321 54.4291 80.1504Z" fill="#D4E1F4"/>
<path d="M30.6979 88.7709C30.6959 88.7529 30.6901 88.6947 30.6813 88.601C27.5877 83.0346 26.8905 74.8666 27.3901 68.3295C27.4332 67.7658 27.4774 67.242 27.5186 66.7529C27.7828 63.6084 27.9426 61.7112 26.8789 59.9932C25.8555 58.3397 23.7694 57.0395 19.7641 54.9192C17.5571 53.7504 15.8701 51.4049 15.0168 48.3153C14.1787 45.1694 14.2505 41.8504 15.224 38.7438C16.1979 35.6969 17.9887 33.2446 20.4033 31.6508C23.2227 29.7895 26.7873 29.1287 30.9961 29.6875C31.1446 29.707 31.2949 29.7317 31.4463 29.7582C29.6901 28.9664 27.8987 28.3311 26.285 28.1176C22.0756 27.5594 18.5115 28.2201 15.6916 30.0815C13.2772 31.6752 11.4862 34.1279 10.5123 37.1744C9.53889 40.281 9.46704 43.6001 10.3051 46.7459C11.1586 49.8356 12.8442 52.1809 15.0524 53.3498C19.0582 55.4688 21.1444 56.7694 22.168 58.4227C23.2315 60.1414 23.0719 62.0385 22.8074 65.1826C22.7662 65.6709 22.7221 66.1955 22.6791 66.7592C22.0746 74.6651 23.2174 84.961 28.2377 90.1483C28.4146 90.2746 28.6126 90.3682 28.8225 90.4248C29.0566 90.5183 29.3116 90.5466 29.5606 90.5069C29.8095 90.4672 30.043 90.3609 30.2364 90.1992C30.4298 90.0375 30.5759 89.8265 30.6591 89.5886C30.7423 89.3507 30.7597 89.0946 30.7092 88.8477C30.7043 88.8223 30.7006 88.7967 30.6979 88.7709Z" fill="#D4E1F4"/>
<path d="M20.5898 67.2053C20.2811 71.2443 19.8086 84.9767 26.7082 92.1047C27.2395 92.6483 27.9307 93.0077 28.6809 93.1304C29.4311 93.2531 30.2008 93.1326 30.8776 92.7865C31.5544 92.4404 32.1027 91.8869 32.4424 91.2069C32.7821 90.5268 32.8954 89.756 32.7656 89.007C32.6764 88.0765 31.2131 71.5439 38.2447 62.9847C38.4851 62.7007 38.7849 62.4728 39.1228 62.3171C39.4608 62.1614 39.8288 62.0817 40.2009 62.0835C40.5731 62.0854 40.9402 62.1688 41.2766 62.3279C41.6131 62.487 41.9105 62.7178 42.148 63.0043C49.0404 71.6041 47.601 88.0752 47.5125 89.008C47.4214 89.5131 47.4431 90.0321 47.5761 90.5279C47.7092 91.0236 47.9502 91.4837 48.282 91.8754C48.6138 92.267 49.0281 92.5803 49.4952 92.793C49.9624 93.0057 50.4708 93.1124 50.984 93.1055C51.3838 93.1054 51.7808 93.0389 52.1588 92.9088C52.6854 92.7548 53.1688 92.4798 53.5703 92.1058C60.4689 84.9769 59.9973 71.2453 59.6885 67.2062C59.6453 66.6424 59.6014 66.1182 59.5602 65.6287C59.3082 62.6301 59.2248 61.2594 59.8883 60.1877C60.6449 58.9652 62.5943 57.7805 66.1611 55.8873C69.034 54.3623 71.1258 51.2584 72.0512 47.1453C72.9191 43.2345 72.6186 39.1549 71.1871 35.4135C69.8041 31.9215 67.4748 29.2689 64.451 27.7432C60.9578 25.9807 56.7145 25.7607 51.8393 27.0894C48.4314 28.0183 46.6459 29.1256 44.7557 30.2976C43.3004 31.2441 41.7656 32.0624 40.1688 32.7433C40.1248 32.7615 40.0816 32.7824 40.0395 32.8019C39.5955 32.5588 39.059 32.249 38.4676 31.9074C35.3324 30.0971 30.5945 27.3609 26.559 26.8258C17.7668 25.6598 11.0451 29.5703 8.57871 37.2851C6.21699 44.6742 8.70195 53.0187 14.1184 55.8863C17.684 57.774 19.6332 58.9564 20.391 60.1808C21.0551 61.2525 20.9709 62.6222 20.7189 65.6199C20.6775 66.1119 20.6332 66.6385 20.5898 67.2053ZM15.2148 53.8154C10.8295 51.4937 8.81289 44.2508 10.8111 37.9994C11.8164 34.8558 15.332 27.7004 26.25 29.149C29.8242 29.623 34.3199 32.2191 37.2947 33.9369C38.1943 34.4564 38.9713 34.9051 39.5492 35.1926C42.3383 36.5793 46.526 38.3301 50.6713 37.5209C50.8235 37.4926 50.9686 37.4345 51.0982 37.3498C51.2278 37.2652 51.3393 37.1557 51.4264 37.0276C51.5134 36.8996 51.5742 36.7556 51.6053 36.604C51.6364 36.4523 51.6371 36.296 51.6074 36.1441C51.5778 35.9922 51.5183 35.8476 51.4324 35.7188C51.3466 35.59 51.2361 35.4795 51.1073 35.3936C50.9784 35.3077 50.8339 35.2483 50.682 35.2186C50.53 35.1889 50.3737 35.1896 50.2221 35.2207C48.115 35.6308 45.7264 35.2767 42.8223 34.1037C44.0594 33.4853 45.0359 32.8801 45.9896 32.2885C47.8061 31.1621 49.3756 30.1891 52.4545 29.3498C60.376 27.1904 66.409 29.7148 69.007 36.2754C70.2684 39.5781 70.5315 43.1787 69.7637 46.6297C69.002 50.0148 67.2881 52.634 65.0613 53.816C60.9551 55.9955 58.9459 57.2535 57.8945 58.9527C56.7955 60.7277 56.957 62.6459 57.2236 65.8236C57.2643 66.3074 57.308 66.8258 57.3506 67.3834C57.948 75.199 56.8262 85.3691 51.8986 90.4615C51.7433 90.563 51.5736 90.6405 51.3951 90.6912C51.1166 90.7963 50.8088 90.7932 50.5324 90.6827C50.256 90.5722 50.0309 90.3623 49.9016 90.0941C49.8055 89.8715 49.7787 89.6251 49.8246 89.3871C49.8307 89.3553 49.8354 89.323 49.8389 89.2908C49.916 88.5525 51.6404 71.1012 43.976 61.5381C43.5203 60.9795 42.9468 60.5285 42.2964 60.2176C41.6461 59.9066 40.935 59.7433 40.2142 59.7393C39.4933 59.7354 38.7805 59.8909 38.1268 60.1947C37.473 60.4985 36.8946 60.9431 36.4328 61.4967C28.6164 71.0109 30.3598 88.5496 30.4377 89.2916C30.441 89.3236 30.4456 89.3554 30.4518 89.3871C30.4978 89.6252 30.471 89.8717 30.3748 90.0943C30.2454 90.3624 30.0203 90.5723 29.7439 90.6827C29.4675 90.7931 29.1597 90.7961 28.8812 90.691C28.7094 90.6388 28.5447 90.5658 28.3906 90.4736C23.4504 85.3678 22.3283 75.1982 22.926 67.3832C22.9688 66.8232 23.0125 66.3023 23.0535 65.8162C23.3205 62.6398 23.4818 60.7224 22.383 58.9471C21.3307 57.2461 19.3211 55.9892 15.2148 53.8154Z" fill="url(#paint0_linear)"/>
<path d="M89.1832 11.2741H37.9422L36.1779 9.51624C35.3461 8.68246 34.3575 8.02154 33.2691 7.57159C32.1806 7.12163 31.0139 6.89154 29.8361 6.89456H10.8168C9.98827 6.89544 9.19393 7.22496 8.60806 7.81082C8.0222 8.39668 7.69268 9.19103 7.6918 10.0196V18.9684C7.6918 19.2792 7.81527 19.5773 8.03504 19.797C8.25481 20.0168 8.55288 20.1403 8.86368 20.1403C9.17448 20.1403 9.47255 20.0168 9.69232 19.797C9.91209 19.5773 10.0356 19.2792 10.0356 18.9684V10.0196C10.0356 9.81236 10.1179 9.61365 10.2644 9.46713C10.4109 9.32062 10.6096 9.23831 10.8168 9.23831H11.3008V19.0983C11.3008 19.4091 11.4243 19.7071 11.644 19.9269C11.8638 20.1467 12.1619 20.2701 12.4727 20.2701C12.7835 20.2701 13.0815 20.1467 13.3013 19.9269C13.5211 19.7071 13.6445 19.4091 13.6445 19.0983V9.23831H14.6992V19.0983C14.6992 19.4091 14.8227 19.7071 15.0425 19.9269C15.2622 20.1467 15.5603 20.2701 15.8711 20.2701C16.1819 20.2701 16.48 20.1467 16.6997 19.9269C16.9195 19.7071 17.043 19.4091 17.043 19.0983V9.23831H18.0977V19.0983C18.0977 19.4091 18.2211 19.7071 18.4409 19.9269C18.6607 20.1467 18.9587 20.2701 19.2695 20.2701C19.5803 20.2701 19.8784 20.1467 20.0982 19.9269C20.3179 19.7071 20.4414 19.4091 20.4414 19.0983V9.23831H21.4961V19.0983C21.4961 19.4091 21.6196 19.7071 21.8393 19.9269C22.0591 20.1467 22.3572 20.2701 22.668 20.2701C22.9788 20.2701 23.2768 20.1467 23.4966 19.9269C23.7164 19.7071 23.8398 19.4091 23.8398 19.0983V9.23831H24.8945V19.0983C24.8945 19.4091 25.018 19.7071 25.2378 19.9269C25.4575 20.1467 25.7556 20.2701 26.0664 20.2701C26.3772 20.2701 26.6753 20.1467 26.8951 19.9269C27.1148 19.7071 27.2383 19.4091 27.2383 19.0983V9.23831H28.293V19.0983C28.293 19.4091 28.4164 19.7071 28.6362 19.9269C28.856 20.1467 29.154 20.2701 29.4648 20.2701C29.7757 20.2701 30.0737 20.1467 30.2935 19.9269C30.5133 19.7071 30.6367 19.4091 30.6367 19.0983V9.28851C32.1076 9.46303 33.4768 10.1279 34.5234 11.176L38.2645 14.9037C39.0964 15.7372 40.0851 16.3978 41.1735 16.8475C42.2618 17.2972 43.4284 17.5271 44.6061 17.5241H89.1832C90.012 17.5241 90.8069 17.1948 91.3929 16.6088C91.979 16.0227 92.3082 15.2279 92.3082 14.3991C92.3082 13.5703 91.979 12.7754 91.3929 12.1893C90.8069 11.6033 90.012 11.2741 89.1832 11.2741ZM89.1832 15.1803H44.6061C43.0391 15.1846 41.5218 14.6307 40.3262 13.6178H89.1832C89.3904 13.6178 89.5891 13.7001 89.7356 13.8466C89.8822 13.9931 89.9645 14.1919 89.9645 14.3991C89.9645 14.6063 89.8822 14.805 89.7356 14.9515C89.5891 15.098 89.3904 15.1803 89.1832 15.1803Z" fill="url(#paint1_linear)"/>
<defs>
<linearGradient id="paint0_linear" x1="40.1111" y1="26.2339" x2="40.1111" y2="93.1771" gradientUnits="userSpaceOnUse">
<stop stop-color="#8888D3"/>
<stop offset="1" stop-color="#5E60A3"/>
</linearGradient>
<linearGradient id="paint1_linear" x1="50" y1="6.89453" x2="50" y2="20.2701" gradientUnits="userSpaceOnUse">
<stop stop-color="#8888D3"/>
<stop offset="1" stop-color="#5E60A3"/>
</linearGradient>
</defs>
</svg>

<svg width="100" height="100" fill="none" xmlns="http://www.w3.org/2000/svg"><path d="M54.43 80.15c-.645-7.608-2.608-13.506-5.833-17.53a4.613 4.613 0 00-3.624-1.719c-.371 0-.741.044-1.103.13l.016.02c3.225 4.024 5.187 9.922 5.832 17.53a59.5 59.5 0 01.01 10.19.892.892 0 01-.012.079 1.397 1.397 0 001.887 1.577c.21-.057.409-.15.586-.278a15.038 15.038 0 002.445-3.439 62.99 62.99 0 00-.205-6.56zm-23.732 8.62a14.545 14.545 0 01-.017-.169c-3.093-5.566-3.79-13.734-3.29-20.272.042-.563.086-1.087.128-1.576.264-3.145.424-5.042-.64-6.76-1.024-1.653-3.11-2.954-7.115-5.074-2.207-1.169-3.894-3.514-4.747-6.604a17.2 17.2 0 01.207-9.571c.974-3.047 2.765-5.5 5.18-7.093 2.819-1.861 6.383-2.522 10.592-1.963.149.019.299.044.45.07-1.756-.792-3.547-1.427-5.161-1.64-4.21-.559-7.773.102-10.593 1.963-2.415 1.594-4.206 4.047-5.18 7.093a17.202 17.202 0 00-.207 9.572c.854 3.09 2.54 5.435 4.747 6.604 4.006 2.119 6.092 3.42 7.116 5.073 1.064 1.718.904 3.615.64 6.76a192.75 192.75 0 00-.129 1.576c-.604 7.906.538 18.202 5.559 23.39.177.126.375.22.585.276a1.397 1.397 0 001.886-1.577.9.9 0 01-.011-.077z" fill="#D4E1F4"/><path d="M20.59 67.205c-.309 4.04-.781 17.772 6.118 24.9a3.562 3.562 0 006.058-3.098c-.09-.93-1.553-17.463 5.479-26.022a2.547 2.547 0 013.903.02c6.892 8.6 5.453 25.07 5.364 26.003a3.481 3.481 0 003.472 4.098c.4 0 .797-.067 1.175-.197a3.52 3.52 0 001.411-.803c6.899-7.13 6.427-20.86 6.118-24.9-.043-.564-.087-1.088-.128-1.577-.252-2.999-.335-4.37.328-5.441.757-1.223 2.706-2.407 6.273-4.3 2.873-1.526 4.965-4.63 5.89-8.743.868-3.91.568-7.99-.864-11.732-1.383-3.491-3.712-6.144-6.736-7.67-3.493-1.762-7.736-1.982-12.612-.654-3.408.93-5.193 2.037-7.083 3.209a29.986 29.986 0 01-4.587 2.445c-.044.018-.087.04-.13.059-.444-.243-.98-.553-1.571-.895-3.136-1.81-7.874-4.546-11.909-5.081-8.792-1.166-15.514 2.744-17.98 10.46-2.362 7.388.123 15.733 5.54 18.6 3.565 1.888 5.514 3.07 6.272 4.295.664 1.072.58 2.441.328 5.439-.042.492-.086 1.018-.13 1.585zm-5.375-13.39C10.829 51.494 8.813 44.251 10.81 38c1.005-3.143 4.521-10.299 15.439-8.85 3.574.474 8.07 3.07 11.045 4.788.9.52 1.676.968 2.254 1.256 2.79 1.386 6.977 3.137 11.122 2.328a1.172 1.172 0 10-.449-2.3c-2.107.41-4.496.056-7.4-1.117 1.237-.619 2.214-1.224 3.168-1.816 1.816-1.126 3.386-2.099 6.465-2.938 7.921-2.16 13.954.365 16.552 6.925a18.04 18.04 0 01.757 10.355c-.762 3.385-2.476 6.004-4.703 7.186-4.106 2.18-6.115 3.438-7.167 5.137-1.099 1.775-.937 3.693-.67 6.87.04.484.084 1.003.127 1.56.597 7.816-.525 17.986-5.452 23.079a1.839 1.839 0 01-.504.23 1.191 1.191 0 01-1.493-.598 1.207 1.207 0 01-.077-.707c.006-.032.01-.064.014-.096.077-.739 1.801-18.19-5.863-27.753a4.889 4.889 0 00-7.543-.041c-7.817 9.514-6.073 27.053-5.995 27.795.003.032.008.063.014.095.046.238.019.485-.077.707a1.191 1.191 0 01-1.494.597 2.203 2.203 0 01-.49-.217c-4.94-5.106-6.063-15.276-5.465-23.09.043-.56.087-1.082.128-1.568.267-3.176.428-5.094-.671-6.869-1.052-1.7-3.062-2.958-7.168-5.132z" fill="url(#paint0_linear)"/><path d="M89.183 11.274h-51.24l-1.765-1.758a8.925 8.925 0 00-6.342-2.621h-19.02a3.128 3.128 0 00-3.124 3.125v8.948a1.172 1.172 0 102.344 0V10.02a.781.781 0 01.78-.782h.485v9.86a1.172 1.172 0 002.344 0v-9.86h1.054v9.86a1.172 1.172 0 002.344 0v-9.86h1.055v9.86a1.172 1.172 0 102.343 0v-9.86h1.055v9.86a1.172 1.172 0 002.344 0v-9.86h1.055v9.86a1.172 1.172 0 002.343 0v-9.86h1.055v9.86a1.172 1.172 0 102.344 0v-9.81a6.59 6.59 0 013.886 1.888l3.741 3.728a8.925 8.925 0 006.342 2.62h44.577a3.125 3.125 0 000-6.25zm0 3.906H44.606a6.593 6.593 0 01-4.28-1.562h48.857a.781.781 0 110 1.562z" fill="url(#paint1_linear)"/><defs><linearGradient id="paint0_linear" x1="40.111" y1="26.234" x2="40.111" y2="93.177" gradientUnits="userSpaceOnUse"><stop stop-color="#8888D3"/><stop offset="1" stop-color="#5E60A3"/></linearGradient><linearGradient id="paint1_linear" x1="50" y1="6.895" x2="50" y2="20.27" gradientUnits="userSpaceOnUse"><stop stop-color="#8888D3"/><stop offset="1" stop-color="#5E60A3"/></linearGradient></defs></svg>
